X:1
T:Title
%%score { ( 1 3 ) | ( 2 4 ) }
L:1/8
M:6/4
K:Eb
V:1 treble nm="Grand Piano"
V:3 treble 
V:2 bass 
V:4 bass 
V:1
 z6 z4[Q:1/4=108] G2 | G2 E2 F2 G2 c3 B | [DB]2 [D=E]2 [DF]2 [DA]4 [FA]2 | %3
 [FA]2 [DF]2 [EG]2 [FA]2 [Dc]3 [DB] | G6- G2 z2 G2 | G2 E2 F2 G2 B3 =B | d2 c2 =E2 F4 B2 | %7
 [DB]2 [CA]2 [B,G]2 [DG]2 [DG]3 [DF] | E6- E2 z2 G2 | G2 E2 F2 G2 c3 B | %10
 [DB]2 [_D=E]2 [=DF]2 [FA]4 [Dc]2 | [Dc]2 [D=B]2 [Dc]2 [Dc]2 [Fd]3 [Dc] | c2 B2 =A2 B4 B2 | %13
 [Ge]2 [Ge]2 [Gd]2 [Gc]2 [Gc]3 [G=B] | B2 =A2 _A2 G4 G2 | G2 E2 F2 G2 c3 C | %16
[M:10/4] [CDA]2 [B,DG]2 [A,DF]2 [G,E]6 z8 |[M:6/4] C6 A6 |[M:5/4] G2- G2- G6 |] %19
V:2
 z6 z4 [E,B,E]2 | [E,B,E]2 [E,G,B,]2 [E,A,B,]2 [E,B,E]2 [E,G,E]3 [E,G,E] | %2
 [B,,A,]2 [B,,A,]2 [B,,A,]2 [B,,F,]4 [B,,B,]2 | %3
 [B,,B,]2 [B,,B,]2 [B,,B,]2 [B,,B,]2 [B,,A,]3 [B,,B,] | [E,B,E]6- [E,B,E]2 z2 [E,B,E]2 | %5
 [E,B,E]2 [E,G,B,]2 [E,A,B,]2 [E,B,E]2 [G,B,E]3 [G,_DE] | %6
 [A,CE]2 [A,CE]2 [G,B,C]2 [F,A,C]4 [F,A,D]2 | %7
 [B,,A,]2 [B,,F,]2 [B,,G,]2 [B,,A,]2 [B,,A,]3 [B,,A,] | [E,G,]6- [E,G,]2 z2 [E,B,E]2 | %9
 [E,B,E]2 [E,G,B,]2 [E,B,]2 [E,B,E]2 [E,G,E]3 [E,G,E] | %10
 [B,,F,]2 [B,,G,]2 [B,,A,]2 [B,,B,]4 [B,,A,]2 | %11
 [B,,A,]2 [B,,A,]2 [B,,A,]2 [B,,A,]2 [B,,A,]3 [B,,A,] | %12
 [E,A,E]2 [E,G,E]2 [E,_G,E]2 [E,=G,E]4 [E,G,E]2 | [C,C]2 [C,C]2 [D,B,]2 [=E,C]2 [E,C]3 [E,C] | %14
 [F,CF]2 [_G,CE]2 [F,=B,D]2 [=E,_B,_D]4 [E,B,C]2 | %15
 [G,B,C]2 [G,B,]2 [F,B,C]2 [E,B,_D]2 [=E,B,C]3 [C,B,] |[M:10/4] B,,2 B,,2 B,,2 E,6 z8 | %17
[M:6/4] z6 =B,6 |[M:5/4] [E,B,E]2- [E,B,E]2- [E,B,E]6 |] %19
V:3
 x12 | x12 | x12 | x12 | x12 | x12 | x12 | x12 | x12 | x12 | x12 | x12 | x12 | x12 | x12 | x12 | %16
[M:10/4] x20 |[M:6/4] E12 |[M:5/4] x10 |] %19
V:4
 x12 | x12 | x12 | x12 | x12 | x12 | x12 | x12 | x12 | x12 | x12 | x12 | x12 | x12 | x12 | x12 | %16
[M:10/4] x20 |[M:6/4] A,,12 |[M:5/4] x10 |] %19

